public/Poker/cards/6H.svg

<svg xmlns="http://www.w3.org/2000/svg" xmlns:xlink="http://www.w3.org/1999/xlink" width="240" height="336" viewBox="-120 -168 240 336" preserveAspectRatio="none"><symbol id="A" viewBox="-500 -500 1000 1000" preserveAspectRatio="xMinYMid"><path d="M-250 100a250 250 0 0 1 500 0v110a250 250 0 0 1-500 0v-420A250 250 0 0 1 0-460c150 0 180 60 200 85" stroke="red" stroke-width="80" stroke-linecap="square" stroke-miterlimit="1.5" fill="none"/></symbol><symbol id="B" viewBox="-600 -600 1200 1200" preserveAspectRatio="xMinYMid"><path d="M0-300c0-100 100-200 200-200s200 100 200 250C400 0 0 400 0 500 0 400-400 0-400-250c0-150 100-250 200-250S0-400 0-300z" fill="red"/></symbol><rect width="239" height="335" x="-119.5" y="-167.5" rx="12" fill="#fff" stroke="#000"/><use xlink:href="#B" height="70" width="70" x="-87.501" y="-35"/><use xlink:href="#B" height="70" width="70" x="17.501" y="-35"/><use xlink:href="#A" height="32" width="32" x="-114.4" y="-156"/><use xlink:href="#B" height="26.769" width="26.769" x="-111.784" y="-119"/><use xlink:href="#B" height="70" width="70" x="-87.501" y="-135.501"/><use xlink:href="#B" height="70" width="70" x="17.501" y="-135.501"/><g transform="rotate(180)"><use xlink:href="#A" height="32" width="32" x="-114.4" y="-156"/><use xlink:href="#B" height="26.769" width="26.769" x="-111.784" y="-119"/><use xlink:href="#B" height="70" width="70" x="-87.501" y="-135.501"/><use xlink:href="#B" height="70" width="70" x="17.501" y="-135.501"/></g></svg>

<?xml version="1.0" encoding="UTF-8" standalone="no"?>
<svg xmlns="http://www.w3.org/2000/svg" xmlns:xlink="http://www.w3.org/1999/xlink" width="2.5in" height="3.5in" viewBox="-120 -168 240 336" preserveAspectRatio="none" class="card" face="6H">
   <symbol id="H6" viewBox="-500 -500 1000 1000" preserveAspectRatio="xMinYMid">
      <path d="M-250 100A250 250 0 0 1 250 100L250 210A250 250 0 0 1 -250 210L-250 -210A250 250 0 0 1 0 -460C150 -460 180 -400 200 -375" stroke="red" stroke-width="80" stroke-linecap="square" stroke-miterlimit="1.5" fill="none"/>
   </symbol>
   <symbol id="H" viewBox="-600 -600 1200 1200" preserveAspectRatio="xMinYMid">
      <path d="M0 -300C0 -400 100 -500 200 -500C300 -500 400 -400 400 -250C400 0 0 400 0 500C0 400 -400 0 -400 -250C-400 -400 -300 -500 -200 -500C-100 -500 0 -400 -0 -300Z" fill="red"/>
   </symbol>
   <rect width="239" height="335" x="-119.5" y="-167.5" rx="12" ry="12" fill="white" stroke="black"/>
   <use xlink:href="#H" height="70" width="70" x="-87.501" y="-35"/>
   <use xlink:href="#H" height="70" width="70" x="17.501" y="-35"/>
   <use xlink:href="#H6" height="32" width="32" x="-114.4" y="-156"/>
   <use xlink:href="#H" height="26.769" width="26.769" x="-111.784" y="-119"/>
   <use xlink:href="#H" height="70" width="70" x="-87.501" y="-135.501"/>
   <use xlink:href="#H" height="70" width="70" x="17.501" y="-135.501"/>
   <g transform="rotate(180)">
      <use xlink:href="#H6" height="32" width="32" x="-114.4" y="-156"/>
      <use xlink:href="#H" height="26.769" width="26.769" x="-111.784" y="-119"/>
      <use xlink:href="#H" height="70" width="70" x="-87.501" y="-135.501"/>
      <use xlink:href="#H" height="70" width="70" x="17.501" y="-135.501"/>
   </g>
</svg>
